_site/images/resources-page/data-escrow-image.svg

<svg fill="none" height="334" viewBox="0 0 432 334" width="432" xmlns="http://www.w3.org/2000/svg"><path d="m415.621.0839844h-399.2419c-9.04591 0-16.3791 7.4027956-16.3791 16.5346156v299.6894c0 9.132 7.33319 16.535 16.3791 16.535h399.2419c9.046 0 16.379-7.403 16.379-16.535v-299.6894c0-9.13182-7.333-16.5346156-16.379-16.5346156z" fill="#eff5fa"/><path d="m217.901 169.36c4.92.497 10.947-1.863 15.867-1.491 0-.124 5.904 0 6.027 0 18.942 9.44 12.792-10.308 12.792-10.681-3.567-5.713-27.06-7.452-31.242-12.793-5.904 2.484-7.872 10.806-3.444 16.146.123.249-.123 8.695 0 8.819z" fill="#952c28"/><path d="m182.48 332.687c3.567-124.203-10.085-168.544 52.398-170.158 2.214 0 4.305-.125 6.396-.125 1.476 0 2.952 0 4.428-.124 11.193-.124 21.156-.248 28.167-.248 5.904 0 11.316.124 16.359.248.861 0 1.722.124 2.46.124 3.075.125 6.15.373 8.979.497 45.017 1.118 59.162 14.408 62.237 79.118.984 19.872.123 71.293-.861 90.668z" fill="#6c9cdb"/><path d="m219.011 269.095c-12.915-2.608-7.38-21.735-6.027-30.43l4.797-32.417c.123-.993-1.353-1.366-1.476-.372-1.968 13.786-4.059 27.573-6.027 41.359-1.23 8.322-2.46 21.239 8.364 23.475.861 0 1.23-1.491.369-1.615z" fill="#fff"/><path d="m216.796 268.971c-.123-.994-1.599-.994-1.476 0 .369 5.962.738 11.923 1.107 17.885 0 .994 1.599.994 1.476 0-.369-5.962-.738-11.923-1.107-17.885z" fill="#fff"/><path d="m194.409 243.758s-4.674-11.8-10.947-27.449c-8.856-21.984-21.033-51.42-28.413-66.325-2.337-10.185-8.979-26.331-18.942-16.643-1.353 1.242.369 3.105 1.845 2.36.861.124 1.722.372 2.583.497-.123.248-.123.621-.123.993v.249c-.738-.994-2.214-.746-2.706.124-.984-.373-2.337.869-1.845 2.235l3.813 8.943-19.311 9.564c4.797 59.121 11.808 119.484 34.194 174.257h60.024c2.706-1.863 5.043-3.726 7.011-5.216.861-.621 1.599-1.242 2.214-1.739l.123-.124c.369-.249.738-.497.984-.745 1.476-1.243 2.337-1.988 2.337-1.988z" fill="#ffa79b"/><path d="m152.176 135.772 29.567 12.942-17.023 39.657-29.567-12.942z" fill="#d24a43"/><path d="m150.499 138.93c-2.952-2.36-6.765-3.353-10.332-1.863-4.428 1.739-6.027 6.583-7.626 10.681-1.722 4.472-5.043 10.185-3.567 15.153s6.519 7.08 10.947 8.57c1.845.621 2.829-2.235.984-2.856-6.15-2.236-10.209-4.223-8.487-12.048.492-1.987 1.476-3.975 2.214-5.962 2.337-5.962 6.273-15.649 14.268-9.191 1.353 1.242 3.075-1.242 1.599-2.484z" fill="#d24a43"/><path d="m122.578 144.892c-1.968 4.471-6.519 16.27-.615 21.984 3.321 3.229 8.733-1.739 7.503-3.851 3.321 2.112 7.134-3.726 6.396-6.334 3.321.373 6.15-.745 6.888-4.968.492-2.981-.984-4.968-3.075-6.335.984-.372 1.722-.869 2.46-1.49 5.904-5.217-.246-10.185-5.781-12.42-7.749-3.105-11.193 7.452-13.776 13.414z" fill="#ffa79b"/><g fill="#d24a43"><path d="m132.787 162.28c-1.722 1.118-3.813.87-5.289-.621-.615-.745-1.722.373-1.107 1.118 1.845 1.987 4.797 2.36 7.011.869.861-.496.123-1.863-.615-1.366z"/><path d="m143.856 143.401c-.615 1.491-1.599 2.484-3.075 2.733-.492.124-.615.621-.492 1.117 1.23 2.609-.246 5.217-2.952 5.838-.369.124-.615.373-.615.745.123 2.236-.492 4.099-1.722 5.838-.615.745.738 1.49 1.353.745 1.107-1.366 1.599-2.732 1.968-4.471.369-2.112.615-1.242 2.214-2.609 1.845-1.614 2.091-3.85 1.353-5.961 1.599-.621 2.706-1.739 3.321-3.478.492-.994-.984-1.366-1.353-.497z"/><path d="m133.894 156.939c-1.353-.745-2.583-1.614-3.936-2.36-.861-.496-1.599.746-.738 1.367 1.353.745 2.583 1.614 3.936 2.36.738.496 1.599-.87.738-1.367z"/><path d="m136.846 152.22c-2.46-1.988-4.92-3.851-7.257-5.838-.738-.621-1.845.497-1.107 1.118 2.46 1.987 4.92 3.85 7.257 5.838.861.621 1.968-.497 1.107-1.118z"/><path d="m138.57 144.892c-2.091-2.857-4.797-5.217-7.995-6.707-.861-.373-1.599.869-.738 1.366 2.952 1.49 5.535 3.478 7.38 6.21.615.621 1.845-.124 1.353-.869z"/></g><path d="m194.779 239.783c-1.353-3.477-2.829-6.831-4.182-10.309-.369-.869-1.845-.496-1.476.373 1.353 3.478 2.829 6.831 4.182 10.309.369.869 1.845.497 1.476-.373z" fill="#fff"/><path d="m199.946 246.242-16.482-29.809c1.107 19.252.246 38.627-11.193 54.898-7.749 11.054-18.326 18.755-30.38 23.723 3.69 12.793 7.872 25.462 12.915 37.758h60.023c2.706-1.863 5.043-3.726 7.011-5.217.861-.621 1.599-1.242 2.214-1.739l.123-.124c.369-.248.738-.497.984-.745 1.476-1.242 2.337-1.987 2.337-1.987z" fill="#6c9cdb"/><path d="m222.205 332.936h139.604s-6.027-52.662-59.654-54.153c0 0-62.361 7.452-92.988 15.029-4.059 14.159 15.129 24.468 13.038 39.124z" fill="#ffa79b"/><path d="m214.212 295.178c-3.444-1.242-13.776-5.962-23.616-6.831-4.428-1.988-9.102-2.981-13.899-.87-7.134 3.229-12.792 11.551-18.081 17.14-1.968 2.112 0 5.838 2.952 5.093 2.091-.497 3.936-1.242 5.781-2.112-2.337 2.608-4.182 4.471-6.273 7.08-1.845 2.235-.492 7.7 2.952 6.583.369 3.353 2.706 4.347 6.15 5.092.984 2.36 8.733 1.863 11.439.497 2.706-1.242 4.92-3.105 6.765-5.341 11.685 7.949 25.461 14.532 38.499 10.806-4.92-12.172-9.225-24.593-12.669-37.137z" fill="#ffa79b"/><path d="m174.974 296.544c-2.214 2.981-4.428 5.838-6.642 8.818-.615.746.738 1.491 1.353.746 2.214-2.981 4.428-5.838 6.642-8.819.615-.745-.738-1.49-1.353-.745z" fill="#d24a43"/><path d="m177.68 302.63c-2.952 4.844-6.273 9.44-9.84 13.787-.615.745.492 1.863 1.107 1.118 3.69-4.472 7.011-9.067 10.086-14.035.492-.994-.861-1.739-1.353-.87z" fill="#d24a43"/><path d="m182.478 307.722c-3.075 5.838-6.888 11.055-11.316 15.898-.615.746.369 1.739 1.107 1.118 4.551-4.844 8.364-10.309 11.562-16.146.369-.994-.984-1.739-1.353-.87z" fill="#d24a43"/><path d="m300.679 217.054-1.722 48.812c0 .993 1.476.993 1.476 0l1.722-48.812c.123-.994-1.476-.994-1.476 0z" fill="#fff"/><path d="m290.348 162.28-37.761 55.147s-4.92-39.125-6.888-55.147c11.193-.124 21.156-.248 28.167-.248 5.904 0 11.316.124 16.482.248z" fill="#ffa79b"/><path d="m290.475 161.411-38.13 13.041-5.043-10.184-6.396-13.042-11.07-22.605 27.552-12.296c1.23 2.857 33.087 45.086 33.087 45.086z" fill="#ffa79b"/><path d="m247.3 164.267.246.497c4.674-5.092 7.38-11.799 8.118-19.127.984-9.688-2.214-17.761-5.412-26.207l-20.295 9.067 11.07 22.605z" fill="#000"/><path d="m255.05 92.7263c-11.316-9.8121-45.017 3.9745-41.942 18.5067 2.337 10.805 8.978 40.863 15.62 45.085 13.161 8.571 28.167-2.484 32.226-15.649 4.182-13.29 5.289-38.255-5.904-47.9427z" fill="#ffa79b"/><path d="m316.672 147.376c-2.952-7.328-11.07-10.309-17.466-7.204 3.075-14.656-10.455-27.201-25.092-22.108v-.124c.246-5.465-.246-11.676-5.043-15.029-2.706-1.863-5.535-2.112-8.118-.994-1.353-3.6016-3.321-6.7067-5.904-9.0666-7.011-6.0859-22.386-3.1051-32.595 3.4777-3.075-1.6146-6.765-2.2356-9.84-.3726-3.075 1.7389-4.797 5.2165-3.936 8.6945.984 3.602 4.428 5.341 7.995 5.216 2.214-.124 4.92-.745 7.134-1.987 5.289.373 11.07-.248 14.883-1.863 2.337 4.72 13.899 13.414 18.942 8.322 1.107-1.118.861 0 2.46-.249 1.599 2.733 3.075 5.589 4.674 8.322-.123.124-.123.372-.123.497v.621c-3.075 7.576 1.23 16.27 9.717 18.258-4.797 7.328-4.797 16.643.861 23.847 7.257 9.315 20.787 11.178 30.996 5.713 8.241-4.72 14.268-14.532 10.455-23.971z" fill="#952c28"/><path d="m272.762 112.102c-3.321-4.099-11.439-4.223-15.129 1.987 1.722 5.465 3.321 11.054 4.797 16.644 3.198.372 9.102-1.491 11.562-5.341 2.706-4.472 2.337-8.819-1.23-13.29z" fill="#ffa79b"/><path d="m234.631 145.016c2.214.248 4.305-2.36 3.321-4.471-.369-.87.861-1.615 1.353-.746 1.476 3.106-1.107 7.204-4.551 6.832-.984-.125-.984-1.739-.123-1.615z" fill="#d24a43"/><path d="m222.945 130.112c.246-.994 1.599-.497 1.476.372-.492 2.236 1.967 3.478 3.689 2.236.738-.621 1.476.745.738 1.366-2.829 2.111-6.641-.621-5.903-3.974z" fill="#d24a43"/><path d="m234.018 118.685c.492 1.118 1.107 2.36 1.599 3.478.369.869-.861 1.614-1.353.745-.492-1.118-1.107-2.36-1.599-3.478-.246-.869.984-1.615 1.353-.745z" fill="#000"/><path d="m218.765 121.169c.492 1.118 1.107 2.36 1.599 3.478.369.869-.861 1.614-1.353.745-.492-1.118-1.107-2.36-1.599-3.478-.369-.869.861-1.615 1.353-.745z" fill="#000"/><path d="m229.466 112.971c.861-.124 1.722-.372 2.46-.497.738-.124 1.599.249 1.845 1.118.246.746-.246 1.739-1.107 1.863-.861.125-1.722.373-2.46.497s-1.599-.248-1.845-1.118c-.123-.745.246-1.614 1.107-1.863z" fill="#952c28"/><path d="m215.811 114.71c.615-.124 1.23-.372 1.722-.497 1.845-.496 2.706 2.36.861 2.981-.615.125-1.23.373-1.722.497-1.845.621-2.706-2.36-.861-2.981z" fill="#952c28"/><path d="m263.414 118.685c-.738 1.366-1.476 2.857-2.214 4.223-.492.869.861 1.614 1.353.745.738-1.366 1.476-2.857 2.214-4.223.492-.869-.861-1.615-1.353-.745z" fill="#d24a43"/><path d="m254.432 326.445h-143.848c-1.987 0-1.987 3.102 0 3.102h143.848c1.988-.124 1.988-3.102 0-3.102z" fill="#003865"/><path d="m124 120.669h-124v157h124z" fill="#1c3c55"/><path d="m47.6055 272.829v54.36c0 1.986 4.3477 1.986 4.3477 0v-54.36c0-1.986-4.3477-1.986-4.3477 0z" fill="#003865"/><path d="m83.9278 329.672h-75.14649c-1.19953 0-2.17193-.973-2.17193-2.172 0-1.2.9724-2.172 2.17193-2.172h75.14649c3.5754-.124 3.5754 4.344 0 4.344z" fill="#003865"/><path d="m55.8018 194.267c0 8.688-5.8384 12.907-12.919 12.907-.2484 0-.3726 0-.6211 0v-25.815h.6211c7.0806 0 12.919 5.834 12.919 12.908z" fill="#fff"/><path d="m104.374 92.8687c-2.733 4.5921-5.4661 9.0603-8.199 13.6523-.9938 1.737 1.6149 3.227 2.6087 1.489l8.1983-13.6519c.994-1.6135-1.615-3.1028-2.608-1.4894z" fill="#feca55"/><path d="m112.82 103.79c-3.23 2.731-6.46 5.461-9.69 8.192-1.49 1.241.621 3.351 2.112 2.11 3.23-2.731 6.46-5.461 9.689-8.192 1.491-1.241-.621-3.351-2.111-2.11z" fill="#feca55"/></svg>

<svg width="432" height="334" viewBox="0 0 432 334" fill="none" xmlns="http://www.w3.org/2000/svg">
<path d="M415.621 0.0839844H16.3791C7.33319 0.0839844 0 7.48678 0 16.6186V316.308C0 325.44 7.33319 332.843 16.3791 332.843H415.621C424.667 332.843 432 325.44 432 316.308V16.6186C432 7.48678 424.667 0.0839844 415.621 0.0839844Z" fill="#EFF5FA"/>
<path d="M217.901 169.36C222.821 169.857 228.848 167.497 233.768 167.869C233.768 167.745 239.672 167.869 239.795 167.869C258.737 177.309 252.587 157.561 252.587 157.188C249.02 151.475 225.527 149.736 221.345 144.395C215.441 146.879 213.473 155.201 217.901 160.541C218.024 160.79 217.778 169.236 217.901 169.36Z" fill="#952C28"/>
<path d="M182.48 332.687C186.047 208.484 172.395 164.143 234.878 162.529C237.092 162.529 239.183 162.404 241.274 162.404C242.75 162.404 244.226 162.404 245.702 162.28C256.895 162.156 266.858 162.032 273.869 162.032C279.773 162.032 285.185 162.156 290.228 162.28C291.089 162.28 291.95 162.404 292.688 162.404C295.763 162.529 298.838 162.777 301.667 162.901C346.684 164.019 360.829 177.309 363.904 242.019C364.888 261.891 364.027 313.312 363.043 332.687H182.48Z" fill="#6C9CDB"/>
<path d="M219.011 269.095C206.096 266.487 211.631 247.36 212.984 238.665L217.781 206.248C217.904 205.255 216.428 204.882 216.305 205.876C214.337 219.662 212.246 233.449 210.278 247.235C209.048 255.557 207.818 268.474 218.642 270.71C219.503 270.71 219.872 269.219 219.011 269.095Z" fill="white"/>
<path d="M216.796 268.971C216.673 267.977 215.197 267.977 215.32 268.971C215.689 274.933 216.058 280.894 216.427 286.856C216.427 287.85 218.026 287.85 217.903 286.856C217.534 280.894 217.165 274.933 216.796 268.971Z" fill="white"/>
<path d="M194.409 243.758C194.409 243.758 189.735 231.958 183.462 216.309C174.606 194.325 162.429 164.889 155.049 149.984C152.712 139.799 146.07 123.653 136.107 133.341C134.754 134.583 136.476 136.446 137.952 135.701C138.813 135.825 139.674 136.073 140.535 136.198C140.412 136.446 140.412 136.819 140.412 137.191C140.412 137.191 140.412 137.315 140.412 137.44C139.674 136.446 138.198 136.694 137.706 137.564C136.722 137.191 135.369 138.433 135.861 139.799L139.674 148.742L120.363 158.306C125.16 217.427 132.171 277.79 154.557 332.563H214.581C217.287 330.7 219.624 328.837 221.592 327.347C222.453 326.726 223.191 326.105 223.806 325.608L223.929 325.484C224.298 325.235 224.667 324.987 224.913 324.739C226.389 323.496 227.25 322.751 227.25 322.751L194.409 243.758Z" fill="#FFA79B"/>
<path d="M152.176 135.772L181.743 148.714L164.72 188.371L135.153 175.429L152.176 135.772Z" fill="#D24A43"/>
<path d="M150.499 138.93C147.547 136.57 143.734 135.577 140.167 137.067C135.739 138.806 134.14 143.65 132.541 147.748C130.819 152.22 127.498 157.933 128.974 162.901C130.45 167.869 135.493 169.981 139.921 171.471C141.766 172.092 142.75 169.236 140.905 168.615C134.755 166.379 130.696 164.392 132.418 156.567C132.91 154.58 133.894 152.592 134.632 150.605C136.969 144.643 140.905 134.956 148.9 141.414C150.253 142.656 151.975 140.172 150.499 138.93Z" fill="#D24A43"/>
<path d="M122.578 144.892C120.61 149.363 116.059 161.162 121.963 166.876C125.284 170.105 130.696 165.137 129.466 163.025C132.787 165.137 136.6 159.299 135.862 156.691C139.183 157.064 142.012 155.946 142.75 151.723C143.242 148.742 141.766 146.755 139.675 145.388C140.659 145.016 141.397 144.519 142.135 143.898C148.039 138.681 141.889 133.713 136.354 131.478C128.605 128.373 125.161 138.93 122.578 144.892Z" fill="#FFA79B"/>
<path d="M132.787 162.28C131.065 163.398 128.974 163.15 127.498 161.659C126.883 160.914 125.776 162.032 126.391 162.777C128.236 164.764 131.188 165.137 133.402 163.646C134.263 163.15 133.525 161.783 132.787 162.28Z" fill="#D24A43"/>
<path d="M143.856 143.401C143.241 144.892 142.257 145.885 140.781 146.134C140.289 146.258 140.166 146.755 140.289 147.251C141.519 149.86 140.043 152.468 137.337 153.089C136.968 153.213 136.722 153.462 136.722 153.834C136.845 156.07 136.23 157.933 135 159.672C134.385 160.417 135.738 161.162 136.353 160.417C137.46 159.051 137.952 157.685 138.321 155.946C138.69 153.834 138.936 154.704 140.535 153.337C142.38 151.723 142.626 149.487 141.888 147.376C143.487 146.755 144.594 145.637 145.209 143.898C145.701 142.904 144.225 142.532 143.856 143.401Z" fill="#D24A43"/>
<path d="M133.894 156.939C132.541 156.194 131.311 155.325 129.958 154.579C129.097 154.083 128.359 155.325 129.22 155.946C130.573 156.691 131.803 157.56 133.156 158.306C133.894 158.802 134.755 157.436 133.894 156.939Z" fill="#D24A43"/>
<path d="M136.846 152.22C134.386 150.232 131.926 148.369 129.589 146.382C128.851 145.761 127.744 146.879 128.482 147.5C130.942 149.487 133.402 151.35 135.739 153.338C136.6 153.959 137.707 152.841 136.846 152.22Z" fill="#D24A43"/>
<path d="M138.57 144.892C136.479 142.035 133.773 139.675 130.575 138.185C129.714 137.812 128.976 139.054 129.837 139.551C132.789 141.041 135.372 143.029 137.217 145.761C137.832 146.382 139.062 145.637 138.57 144.892Z" fill="#D24A43"/>
<path d="M194.779 239.783C193.426 236.306 191.95 232.952 190.597 229.474C190.228 228.605 188.752 228.978 189.121 229.847C190.474 233.325 191.95 236.678 193.303 240.156C193.672 241.025 195.148 240.653 194.779 239.783Z" fill="white"/>
<path d="M199.946 246.242L183.464 216.433C184.571 235.685 183.71 255.06 172.271 271.331C164.522 282.385 153.945 290.086 141.891 295.054C145.581 307.847 149.763 320.516 154.806 332.812H214.829C217.535 330.949 219.872 329.086 221.84 327.595C222.701 326.974 223.439 326.353 224.054 325.856L224.177 325.732C224.546 325.484 224.915 325.235 225.161 324.987C226.637 323.745 227.498 323 227.498 323L199.946 246.242Z" fill="#6C9CDB"/>
<path d="M222.205 332.936C253.693 332.936 361.809 332.936 361.809 332.936C361.809 332.936 355.782 280.274 302.155 278.783C302.155 278.783 239.794 286.235 209.167 293.812C205.108 307.971 224.296 318.28 222.205 332.936Z" fill="#FFA79B"/>
<path d="M214.212 295.178C210.768 293.936 200.436 289.216 190.596 288.347C186.168 286.359 181.494 285.366 176.697 287.477C169.563 290.706 163.905 299.028 158.616 304.617C156.648 306.729 158.616 310.455 161.568 309.71C163.659 309.213 165.504 308.468 167.349 307.598C165.012 310.206 163.167 312.069 161.076 314.678C159.231 316.913 160.584 322.378 164.028 321.261C164.397 324.614 166.734 325.608 170.178 326.353C171.162 328.713 178.911 328.216 181.617 326.85C184.323 325.608 186.537 323.745 188.382 321.509C200.067 329.458 213.843 336.041 226.881 332.315C221.961 320.143 217.656 307.722 214.212 295.178Z" fill="#FFA79B"/>
<path d="M174.974 296.544C172.76 299.525 170.546 302.382 168.332 305.362C167.717 306.108 169.07 306.853 169.685 306.108C171.899 303.127 174.113 300.27 176.327 297.289C176.942 296.544 175.589 295.799 174.974 296.544Z" fill="#D24A43"/>
<path d="M177.68 302.63C174.728 307.474 171.407 312.07 167.84 316.417C167.225 317.162 168.332 318.28 168.947 317.535C172.637 313.063 175.958 308.468 179.033 303.5C179.525 302.506 178.172 301.761 177.68 302.63Z" fill="#D24A43"/>
<path d="M182.478 307.722C179.403 313.56 175.59 318.777 171.162 323.62C170.547 324.366 171.531 325.359 172.269 324.738C176.82 319.894 180.633 314.429 183.831 308.592C184.2 307.598 182.847 306.853 182.478 307.722Z" fill="#D24A43"/>
<path d="M300.679 217.054L298.957 265.866C298.957 266.859 300.433 266.859 300.433 265.866L302.155 217.054C302.278 216.06 300.679 216.06 300.679 217.054Z" fill="white"/>
<path d="M290.348 162.28L252.587 217.427C252.587 217.427 247.667 178.302 245.699 162.28C256.892 162.156 266.855 162.032 273.866 162.032C279.77 162.032 285.182 162.156 290.348 162.28Z" fill="#FFA79B"/>
<path d="M290.475 161.411L252.345 174.452L247.302 164.268L240.906 151.226L229.836 128.621L257.388 116.325C258.618 119.182 290.475 161.411 290.475 161.411Z" fill="#FFA79B"/>
<path d="M247.3 164.267L247.546 164.764C252.22 159.672 254.926 152.965 255.664 145.637C256.648 135.949 253.45 127.876 250.252 119.43L229.957 128.497L241.027 151.102L247.3 164.267Z" fill="black"/>
<path d="M255.05 92.7263C243.734 82.9142 210.033 96.7008 213.108 111.233C215.445 122.038 222.086 152.096 228.728 156.318C241.889 164.889 256.895 153.834 260.954 140.669C265.136 127.379 266.243 102.414 255.05 92.7263Z" fill="#FFA79B"/>
<path d="M316.672 147.376C313.72 140.048 305.602 137.067 299.206 140.172C302.281 125.516 288.751 112.971 274.114 118.064V117.94C274.36 112.475 273.868 106.264 269.071 102.911C266.365 101.048 263.536 100.799 260.953 101.917C259.6 98.3154 257.632 95.2103 255.049 92.8504C248.038 86.7645 232.663 89.7453 222.454 96.3281C219.379 94.7135 215.689 94.0925 212.614 95.9555C209.539 97.6944 207.817 101.172 208.678 104.65C209.662 108.252 213.106 109.991 216.673 109.866C218.887 109.742 221.593 109.121 223.807 107.879C229.096 108.252 234.877 107.631 238.69 106.016C241.027 110.736 252.589 119.43 257.632 114.338C258.739 113.22 258.493 114.338 260.092 114.089C261.691 116.822 263.167 119.678 264.766 122.411C264.643 122.535 264.643 122.783 264.643 122.908C264.643 123.156 264.643 123.28 264.643 123.529C261.568 131.105 265.873 139.799 274.36 141.787C269.563 149.115 269.563 158.43 275.221 165.634C282.478 174.949 296.008 176.812 306.217 171.347C314.458 166.627 320.485 156.815 316.672 147.376Z" fill="#952C28"/>
<path d="M272.762 112.102C269.441 108.003 261.323 107.879 257.633 114.089C259.355 119.554 260.954 125.143 262.43 130.733C265.628 131.105 271.532 129.242 273.992 125.392C276.698 120.92 276.329 116.573 272.762 112.102Z" fill="#FFA79B"/>
<path d="M234.631 145.016C236.845 145.264 238.936 142.656 237.952 140.545C237.583 139.675 238.813 138.93 239.305 139.799C240.781 142.905 238.198 147.003 234.754 146.631C233.77 146.506 233.77 144.892 234.631 145.016Z" fill="#D24A43"/>
<path d="M222.945 130.112C223.191 129.118 224.544 129.615 224.421 130.484C223.929 132.72 226.388 133.962 228.11 132.72C228.848 132.099 229.586 133.465 228.848 134.086C226.019 136.197 222.207 133.465 222.945 130.112Z" fill="#D24A43"/>
<path d="M234.018 118.685C234.51 119.803 235.125 121.045 235.617 122.163C235.986 123.032 234.756 123.777 234.264 122.908C233.772 121.79 233.157 120.548 232.665 119.43C232.419 118.561 233.649 117.815 234.018 118.685Z" fill="black"/>
<path d="M218.765 121.169C219.257 122.287 219.872 123.529 220.364 124.647C220.733 125.516 219.503 126.261 219.011 125.392C218.519 124.274 217.904 123.032 217.412 121.914C217.043 121.045 218.273 120.299 218.765 121.169Z" fill="black"/>
<path d="M229.466 112.971C230.327 112.847 231.188 112.599 231.926 112.474C232.664 112.35 233.525 112.723 233.771 113.592C234.017 114.338 233.525 115.331 232.664 115.455C231.803 115.58 230.942 115.828 230.204 115.952C229.466 116.076 228.605 115.704 228.359 114.834C228.236 114.089 228.605 113.22 229.466 112.971Z" fill="#952C28"/>
<path d="M215.811 114.71C216.426 114.586 217.041 114.338 217.533 114.213C219.378 113.717 220.239 116.573 218.394 117.194C217.779 117.319 217.164 117.567 216.672 117.691C214.827 118.312 213.966 115.331 215.811 114.71Z" fill="#952C28"/>
<path d="M263.414 118.685C262.676 120.051 261.938 121.542 261.2 122.908C260.708 123.777 262.061 124.522 262.553 123.653C263.291 122.287 264.029 120.796 264.767 119.43C265.259 118.561 263.906 117.815 263.414 118.685Z" fill="#D24A43"/>
<path d="M254.432 326.445H110.584C108.597 326.445 108.597 329.547 110.584 329.547H254.432C256.42 329.423 256.42 326.445 254.432 326.445Z" fill="#003865"/>
<path d="M124 120.669H0V277.669H124V120.669Z" fill="#1C3C55"/>
<path d="M47.6055 272.829V327.189C47.6055 329.175 51.9532 329.175 51.9532 327.189V272.829C51.9532 270.843 47.6055 270.843 47.6055 272.829Z" fill="#003865"/>
<path d="M83.9278 329.672H8.78131C7.58178 329.672 6.60938 328.699 6.60938 327.5C6.60938 326.3 7.58178 325.328 8.78131 325.328H83.9278C87.5032 325.204 87.5032 329.672 83.9278 329.672Z" fill="#003865"/>
<path d="M55.8018 194.267C55.8018 202.955 49.9634 207.174 42.8828 207.174C42.6344 207.174 42.5102 207.174 42.2617 207.174V181.359C42.5102 181.359 42.6344 181.359 42.8828 181.359C49.9634 181.359 55.8018 187.193 55.8018 194.267Z" fill="white"/>
<path d="M104.374 92.8687C101.641 97.4608 98.9079 101.929 96.175 106.521C95.1812 108.258 97.7899 109.748 98.7837 108.01L106.982 94.3581C107.976 92.7446 105.367 91.2553 104.374 92.8687Z" fill="#FECA55"/>
<path d="M112.82 103.79C109.59 106.521 106.36 109.251 103.13 111.982C101.64 113.223 103.751 115.333 105.242 114.092C108.472 111.361 111.702 108.631 114.931 105.9C116.422 104.659 114.31 102.549 112.82 103.79Z" fill="#FECA55"/>
</svg>
